hosted/assets/icon/widgets/dark-mode/plotly-bar.svg

<svg width="50" height="50" fill="none" xmlns="http://www.w3.org/2000/svg"><path fill="#E75F63" d="M35 5h12v44H35z"/><path d="M34 4v46h14V4H34zm2 2h10v42H36V6zM2 17v33h14V17H2zm2 2h10v29H4V19zm14 9v22h14V28H18zm2 2h10v18H20V30z" fill="#fff"/></svg>

<svg width="50" height="50" viewBox="0 0 50 50" fill="none" xmlns="http://www.w3.org/2000/svg">
<rect x="35" y="5" width="12" height="44" fill="#E75F63"/>
<path d="M34 4V50H48V4H34ZM36 6H46V48H36V6ZM2 17V50H16V17H2ZM4 19H14V48H4V19ZM18 28V50H32V28H18ZM20 30H30V48H20V30Z" fill="white"/>
</svg>
